!!!COM: Corelli, Arcangelo
!!!OTL: 
!!!ONM: Opus 4, No. 6
!!!OMV: 3
!!!CDT: 1653/2/17/-1713/1/8/
!!!OCY: Italia
**kern	**kern	**kern	**kern
*clefC	*clefC	*clefG	*clefG
*k[f#c#g#]	*k[f#c#g#]	*k[f#c#g#]	*k[f#c#g#]
*A:	*A:	*A:	*A:
*M4/4	*M4/4	*M4/4	*M4/4
=1	=1	=1	=1
4E	4E	4gg#	4bb
8r	8r	6r	6r
8E	8E	.	.
.	.	12gg#	12bb
4E	4E	12gg#	12bb
.	.	12ee	12gg#
.	.	12ff#	12aa
4EE	4EE	12gg#	12bb
.	.	12ee	12gg#
.	.	12gg#	12bb
=2	=2	=2	=2
4F#	4F#	4ff#	4aa
8r	8r	6r	6r
8F#	8F#	.	.
.	.	12ff#	12aa
4F#	4F#	12ff#	12aa
.	.	12dd#	12ff#
.	.	12ee	12gg#
4FF#	4FF#	12ff#	12aa
.	.	12dd#	12ff#
.	.	12ff#	12aa
=3	=3	=3	=3
4.G#	4.G#	4ee	4gg#
.	.	6r	6r
8G#	8G#	.	.
.	.	12ee	12gg#
4G#	4G#	12ee	12gg#
.	.	12cc#	12ee
.	.	12dd#	12ff#
4A	4A	12ee	12gg#
.	.	12cc#	12ee
.	.	12ee	12gg#
=4	=4	=4	=4
4B	4B	4dd#	4ff#
8r	8r	6r	3bb
8B	8B	.	.
.	.	12dd#	.
4c#	4c#	12ee	.
.	.	12dd#	12aa
.	.	12ee	12gg#
4d#	4d#	12ff#	[4aa
.	.	12ee	.
.	.	12ff#	.
=5	=5	=5	=5
4e	4e	4b	12aa]
.	.	.	12gg#
.	.	.	12ff#
4G#	4G#	2ee	12gg#
.	.	.	12aa
.	.	.	12gg#
4A	4A	.	12ff#
.	.	.	12gg#
.	.	.	12aa
4B	4B	4dd#	4ff#
=6	=6	=6	=6
4E	4E	4ee	4ee
[4e	[4e	6r	6r
.	.	12ee	12gg#
4e]	4e]	4ff#	12aa
.	.	.	12gg#
.	.	.	12aa
4d#	4d#	4ff#	12ff#
.	.	.	12bb
.	.	.	12ff#
=7	=7	=7	=7
4e	4e	4b	12gg#
.	.	.	12bb
.	.	.	12gg#
2B	2B	6r	12ff#
.	.	.	12bb
.	.	12b	12ff#
.	.	4cc#	12ee
.	.	.	12ff#
.	.	.	12gg#
4A#	4A#	4cc#	12ff#
.	.	.	12gg#
.	.	.	12ee
=8	=8	=8	=8
4B	4B	4f#	12dd#
.	.	.	12ee
.	.	.	12ff#
4D#	4D#	6r	12ff#
.	.	.	12gg#
.	.	12ff#	12ff#
4G#	4G#	4b	12ff#
.	.	.	12b
.	.	.	12ee
4C#	4C#	6r	12ee
.	.	.	12ff#
.	.	12gg#	12ee
=9	=9	=9	=9
4F#	4F#	4a#	12ee
.	.	.	12ff#
.	.	.	12ee
4BB	4BB	6r	12dd#
.	.	.	12ff#
.	.	12b	12bb
4E	4E	12b	12gg#
.	.	12cc#	12aa#
.	.	12b	12bb
4F#	4F#	6a#	12cc#
.	.	.	12bb
.	.	12ff#	12aa#
=10	=10	=10	=10
4BB	4BB	4dd#	4b
4G#	4G#	4r	3bb
4c#	4c#	3ee	.
.	.	.	12aa
.	.	.	12gg#
4F#	4F#	.	[4aa
.	.	12dd#	.
.	.	12cc#	.
=11	=11	=11	=11
4B	4B	3dd#	12aa]
.	.	.	12gg#
.	.	.	12ff#
4E	4E	.	4gg#
.	.	12cc#	.
.	.	12b	.
4A	4A	4cc#	12gg#
.	.	.	12aa
.	.	.	12gg#
4AA	4AA	[4aa	12ff#
.	.	.	12gg#
.	.	.	12ee
=12	=12	=12	=12
4BB	4BB	4aa]	12dd#
.	.	.	12cc#
.	.	.	12b
4C#	4C#	4gg#	6ee
.	.	.	12ee
4AA	4AA	2ff#	[3ee
4BB	4BB	.	.
.	.	.	12ee]
.	.	.	12dd#
=13	=13	=13	=13
4E	4E	4ee	4ee
2AA	2AA	6r	4cc#
.	.	12e	.
.	.	4f#	4d#
4GG#	4GG#	6r	[4e
.	.	12b	.
=14	=14	=14	=14
4AA	4AA	12a	4e]
.	.	12b	.
.	.	12g#	.
4BB	4BB	6f#	4d#
.	.	12b	.
2EE	2EE	2g#	2e
=15	=15	=15	=15
4B#	4B#	2gg#	12dd#
.	.	.	12cc#
.	.	.	12dd#
4G#	4G#	.	12gg#
.	.	.	12ff#
.	.	.	12gg#
4c#	4c#	[2gg#	12ee
.	.	.	12dd#
.	.	.	12cc#
4C#	4C#	.	12ee
.	.	.	12dd#
.	.	.	12cc#
=16	=16	=16	=16
4BB#	4BB#	2gg#_	12dd#
.	.	.	12cc#
.	.	.	12dd#
4GG#	4GG#	.	12gg#
.	.	.	12ff#
.	.	.	12gg#
2C#	2C#	2gg#]	2ee
=17	=17	=17	=17
4A#	4A#	2ff#	12cc#
.	.	.	12b
.	.	.	12cc#
4F#	4F#	.	12ff#
.	.	.	12ee
.	.	.	12ff#
4B	4B	[2ff#	12dd#
.	.	.	12cc#
.	.	.	12b
4BB	4BB	.	12dd#
.	.	.	12cc#
.	.	.	12b
=18	=18	=18	=18
4AA#	4AA#	2ff#_	12cc#
.	.	.	12b
.	.	.	12cc#
4FF#	4FF#	.	12ff#
.	.	.	12ee
.	.	.	12ff#
2BB	2BB	2ff#]	2dd#
=19	=19	=19	=19
4D#	4D#	4b	12ff#
.	.	.	12ee
.	.	.	12ff#
4E	4E	2ee	12gg#
.	.	.	12ff#
.	.	.	12gg#
4F#	4F#	.	4a#
4BB	4BB	4dd#	[4b
=20	=20	=20	=20
2FF#	2FF#	2cc#	4b]
.	.	.	4a#
2BB	2BB	2b	2b
=21	=21	=21	=21
4E	4E	4cc#	12gg#
.	.	.	12ff#
.	.	.	12gg#
4F#	4F#	2ff#	12aa
.	.	.	12gg#
.	.	.	12aa
4G#	4G#	.	4b#
4C#	4C#	4ee	[4cc#
=22	=22	=22	=22
2GG#	2GG#	2dd#	4cc#]
.	.	.	4b#
2C#	2C#	2cc#	12cc#
.	.	.	12dd#
.	.	.	12ee
.	.	.	12cc#
.	.	.	12dd#
.	.	.	12ee
=23	=23	=23	=23
4A#	4A#	4cc#	2ee
4F#	4F#	4a#	.
2B	2B	2f#	12dd
.	.	.	12b
.	.	.	12cc#
.	.	.	12dd
.	.	.	12b
.	.	.	12cc#
=24	=24	=24	=24
4G#	4G#	4b	2dd
4E	4E	4g#	.
2A	2A	2e	12cc#
.	.	.	12a
.	.	.	12b
.	.	.	12cc#
.	.	.	12a
.	.	.	12cc#
=25	=25	=25	=25
4D#	4D#	4ff#	[3b
4BB	4BB	4dd#	.
.	.	.	12b]
.	.	.	12a
2E	2E	2b	12g#
.	.	.	12a
.	.	.	12b
.	.	.	12g#
.	.	.	12a
.	.	.	12b
=26	=26	=26	=26
4D#	4D#	12b	4f#
.	.	12cc#	.
.	.	12dd#	.
4G#	4G#	12b	2b
.	.	12cc#	.
.	.	12dd#	.
4C#	4C#	12e	.
.	.	12f#	.
.	.	12g#	.
4F#	4F#	12a	[4a
.	.	12b	.
.	.	12cc#	.
=27	=27	=27	=27
4BB	4BB	4d#	4a]
4E	4E	2e	4g#
4AA	4AA	.	[3f#
4BB	4BB	4d#	.
.	.	.	12f#]
.	.	.	12b
=28	=28	=28	=28
2E	2E	2e	12g#
.	.	.	12a
.	.	.	12b
.	.	.	12g#
.	.	.	12a
.	.	.	12b
4D#	4D#	12b	4f#
.	.	12cc#	.
.	.	12dd#	.
4G#	4G#	12b	[4b
.	.	12cc#	.
.	.	12dd#	.
=29	=29	=29	=29
4C#	4C#	12e	4b]
.	.	12f#	.
.	.	12g#	.
4F#	4F#	12a	2a
.	.	12b	.
.	.	12cc#	.
4BB	4BB	4d#	.
4E	4E	[4e	4g#
=30	=30	=30	=30
4AA	4AA	4e]	[3f#
4BB	4BB	4d#	.
.	.	.	12f#]
.	.	.	12b
2EE	2EE	2e	2g#
==	==	==	==
*-	*-	*-	*-
!!!RWG: This file only contains pitch and duration data.
!!!RWG: Transposing instruments are not transposed.
!!!RWG: Durations of rests and tied notes may be interpreted.
!!!RWG: Key is interpreted using the Humdrum key tool.
!!!SCA: 
!!!YOR: Chrysander Edition
!!!AGN: chamber
!!!AFT: stage1
!!!ENC: F. Bennion
!!!END: 1997/04/15
!!!AST: baroque
!!!YEC: Copyright 1994, Center for Computer Assisted Research in the Humanities
!!!YEM: Rights to all derivative electronic formats reserved.
!!!YEM: Refer to licensing agreement for further details.
!!!YEN: United States of America
!!!EED: W.B. Hewlett
!!!KEY: 1223375718
!!!EMD: Converted from MuseData to Humdrum Aug 9, 1999, by Bret Aarden using muse2kern.
!!!VTS: 4013959292
